client/filepreviewer/pdfjs/web/images/comment-closeButton.svg

<svg width="25" height="24" viewBox="0 0 25 24" fill="none" xmlns="http://www.w3.org/2000/svg">
<path d="M13.6241 11.7759L18.3331 7.06694C18.4423 6.94811 18.5015 6.79167 18.4981 6.63028C18.4948 6.46889 18.4292 6.31502 18.3152 6.20081C18.2011 6.0866 18.0473 6.02088 17.8859 6.01736C17.7245 6.01384 17.568 6.0728 17.4491 6.18194L12.7601 10.8709H12.2721L7.58306 6.18294C7.52495 6.12489 7.45598 6.07886 7.38008 6.04747C7.30418 6.01609 7.22284 5.99995 7.14071 6C7.05857 6.00005 6.97725 6.01627 6.90139 6.04774C6.82553 6.07922 6.75661 6.12533 6.69856 6.18344C6.64052 6.24155 6.59449 6.31052 6.5631 6.38642C6.53171 6.46232 6.51558 6.54366 6.51563 6.62579C6.51572 6.79167 6.5817 6.95071 6.69906 7.06794L11.3861 11.7539V12.2449L6.69906 16.9319C6.5898 17.0508 6.53066 17.2072 6.53399 17.3686C6.53732 17.53 6.60288 17.6839 6.71696 17.7981C6.83104 17.9123 6.98483 17.978 7.14622 17.9815C7.3076 17.985 7.46411 17.9261 7.58306 17.8169L12.2701 13.1299H12.7611L17.4481 17.8169C17.5656 17.934 17.7247 17.9997 17.8906 17.9997C18.0564 17.9997 18.2155 17.934 18.3331 17.8169C18.4504 17.6996 18.5163 17.5404 18.5163 17.3744C18.5163 17.2085 18.4504 17.0493 18.3331 16.9319L13.6241 12.2229V11.7759Z" fill="black"/>
</svg>

<svg xmlns="http://www.w3.org/2000/svg" width="25" height="24" fill="none"><path fill="#000" d="m13.624 11.776 4.71-4.71a.626.626 0 0 0-.885-.884L12.76 10.87h-.488L7.583 6.183a.625.625 0 1 0-.884.885l4.687 4.686v.49L6.7 16.933a.626.626 0 0 0 .884.885l4.687-4.687h.491l4.687 4.687a.627.627 0 0 0 .885-.885l-4.709-4.71v-.446Z"/></svg>
